X: 238
T: Love Song (a)
C: Teton Sioux band 1911-1914
N: Derived from sioux233.krn
O: South Dakota, U.S.A.
N: Teton Sioux Music by Frances Densmore, 1918
Z: transcribed to **kern format by Craig Sapp
L: 1/8
M: 2/4
Q: 1/4=58
K: E clef=bass
%%linebreak <none>
C/ [I:setbarnb 1]| 
C C/ C/ C C/ C/- | 
C2C3/ ^B,/ | 
C> ^B, (3=B, B, G, | 
G,7/G,/ | 
G, G,/ G,/ G, G,/ (G,/ | 
G,2)G,3/ F,/ | 
G,> F, (3F, F, E, | 
E,4 | 
C,2(3G, G, G, | 
G,> E, E,3/ C,/ ||  
[M:3/4](3C, E, C,C,4 | 
C,2z4 |]  



